X:1
T:Bourr?e ? Dechaux
C:Trad
R:Bourree
B:Massif Central Tune Book no 2 number 18
M:3/8
L:1/8
K:G
DEF|GAB|GA/B/A/G/|F3|DEF|GAB|GA/B/A/F/|G3:|
ABA|d3|cBA|c3|BAG|AcB|1GA/B/A/G/|F3:|2GA/B/A/F/|G3|]
<end>
<start>
